public/formular-icons/english/lower-r.svg

<svg style="vertical-align:-.025ex" xmlns="http://www.w3.org/2000/svg" width="1.02ex" height="1.025ex" viewBox="0 -442 451 453" xmlns:xlink="http://www.w3.org/1999/xlink"><defs><path id="a" d="M21 287q1 3 2 8t5 22 10 31 15 33 20 30 26 22 33 9q29 0 51-12t31-22 11-20q2-6 3-6t8 7q48 52 111 52h3q48 0 72-41 8-19 8-37 0-30-13-48t-26-23-25-4q-20 0-32 11t-12 29q0 48 56 64-22 13-36 13-56 0-103-74-10-16-15-33t-34-133Q156 25 151 16q-13-27-43-27-13 0-21 6T76 7t-2 10q0 13 40 172t40 177q0 39-26 39-21 0-36-28t-24-61-11-36q-2-2-16-2H27q-6 6-6 9Z"/></defs><g stroke="currentColor" fill="currentColor" stroke-width="0"><use data-c="1D45F" xlink:href="#a" transform="scale(1 -1)"/></g></svg>

<svg style="vertical-align: -0.025ex" xmlns="http://www.w3.org/2000/svg" width="1.02ex" height="1.025ex" role="img" focusable="false" viewBox="0 -442 451 453" xmlns:xlink="http://www.w3.org/1999/xlink"><defs><path id="MJX-67-TEX-I-1D45F" d="M21 287Q22 290 23 295T28 317T38 348T53 381T73 411T99 433T132 442Q161 442 183 430T214 408T225 388Q227 382 228 382T236 389Q284 441 347 441H350Q398 441 422 400Q430 381 430 363Q430 333 417 315T391 292T366 288Q346 288 334 299T322 328Q322 376 378 392Q356 405 342 405Q286 405 239 331Q229 315 224 298T190 165Q156 25 151 16Q138 -11 108 -11Q95 -11 87 -5T76 7T74 17Q74 30 114 189T154 366Q154 405 128 405Q107 405 92 377T68 316T57 280Q55 278 41 278H27Q21 284 21 287Z"></path></defs><g stroke="currentColor" fill="currentColor" stroke-width="0" transform="scale(1,-1)"><g data-mml-node="math"><g data-mml-node="mi"><use data-c="1D45F" xlink:href="#MJX-67-TEX-I-1D45F"></use></g></g></g></svg>
